gama.ui.shared/icons_svg/light/navigator/navigator.open2.svg

<svg height="25" viewBox="-310.951 -3710.75 25 25" width="25" xmlns="http://www.w3.org/2000/svg"><g fill="none"><path d="m-306.6109-3710.25h16.32c2.1208 0 3.84 1.7192 3.84 3.84v16.32c0 2.1208-1.7192 3.84-3.84 3.84h-16.32c-2.12076 0-3.84-1.7192-3.84-3.84v-16.32c0-2.1208 1.71924-3.84 3.84-3.84z" fill="#fff"/><path d="m-306.6109-3710.25h16.32c2.1208 0 3.84 1.7192 3.84 3.84v16.32c0 2.1208-1.7192 3.84-3.84 3.84h-16.32c-2.12076 0-3.84-1.7192-3.84-3.84v-16.32c0-2.1208 1.71924-3.84 3.84-3.84z" stroke="#000" stroke-linecap="round" stroke-linejoin="round" stroke-width=".25"/><path d="m-292.24095-3700.6495c-.2209 0-.39998-.1791-.39998-.4v-1.1999h-2.79987c-.2209 0-.39997-.1791-.39997-.4v-2.7998h-6.79966c-.66271 0-1.19994.5372-1.19994 1.1999v11.9993c0 .663.53723 1.2 1.19994 1.2h8.79956c.66271 0 1.19994-.537 1.19994-1.2v-1.6c0-.2207.17908-.4.39998-.4s.39998.1793.39998.4v1.6c0 1.1046-.89539 2-1.9999 2h-8.79956c-1.10451 0-1.9999-.8954-1.9999-2v-11.9993c0-1.1047.89539-1.9997 1.9999-1.9997h7.17726c.10619-.007.21673.0285.30521.117l3.19984 3.2c.08848.0883.12388.199.11715.305v1.5775c0 .2209-.17908.4-.39998.4zm-.96565 3.1999h-6.2451c-.2209 0-.39997-.1791-.39997-.4s.17907-.4.39997-.4h6.2451l-1.71706-1.7171c-.1562-.1563-.1562-.4093 0-.5656.1562-.1562.40946-.1562.56566 0l2.39988 2.3999c.1562.1562.1562.4094 0 .5654l-2.39988 2.4c-.1562.1563-.40946.1563-.56566 0-.1562-.156-.1562-.4094 0-.5656zm-1.8342-7.434v1.8342h1.8342z" fill="#5c75a2"/></g></svg>

<?xml version="1.0" encoding="UTF-8" standalone="no"?>
<!DOCTYPE svg PUBLIC "-//W3C//DTD SVG 1.1//EN" "http://www.w3.org/Graphics/SVG/1.1/DTD/svg11.dtd">
<svg version="1.1" xmlns="http://www.w3.org/2000/svg" xmlns:xl="http://www.w3.org/1999/xlink" xmlns:dc="http://purl.org/dc/elements/1.1/" viewBox="-310.9509 -3710.75 25 25" width="25" height="25">
  <defs/>
  <g id="SOURCES" stroke-dasharray="none" fill="none" stroke="none" fill-opacity="1" stroke-opacity="1">
    <title>SOURCES</title>
    <g id="SOURCES_Calque_1">
      <title>Calque 1</title>
      <g id="Graphic_6373">
        <title>views/view.other</title>
        <path d="M -306.6109 -3710.25 L -290.2909 -3710.25 C -288.1701 -3710.25 -286.4509 -3708.5308 -286.4509 -3706.41 L -286.4509 -3690.09 C -286.4509 -3687.9692 -288.1701 -3686.25 -290.2909 -3686.25 L -306.6109 -3686.25 C -308.73166 -3686.25 -310.4509 -3687.9692 -310.4509 -3690.09 L -310.4509 -3706.41 C -310.4509 -3708.5308 -308.73166 -3710.25 -306.6109 -3710.25 Z" fill="white"/>
        <path d="M -306.6109 -3710.25 L -290.2909 -3710.25 C -288.1701 -3710.25 -286.4509 -3708.5308 -286.4509 -3706.41 L -286.4509 -3690.09 C -286.4509 -3687.9692 -288.1701 -3686.25 -290.2909 -3686.25 L -306.6109 -3686.25 C -308.73166 -3686.25 -310.4509 -3687.9692 -310.4509 -3690.09 L -310.4509 -3706.41 C -310.4509 -3708.5308 -308.73166 -3710.25 -306.6109 -3710.25 Z" stroke="black" stroke-linecap="round" stroke-linejoin="round" stroke-width=".25"/>
      </g>
      <g id="Graphic_6372">
        <path d="M -292.24095 -3700.6495 C -292.46185 -3700.6495 -292.64093 -3700.8286 -292.64093 -3701.0495 L -292.64093 -3702.2494 L -295.4408 -3702.2494 C -295.6617 -3702.2494 -295.84077 -3702.4285 -295.84077 -3702.6494 L -295.84077 -3705.4492 L -302.64043 -3705.4492 C -303.30314 -3705.4492 -303.84037 -3704.912 -303.84037 -3704.2493 L -303.84037 -3692.25 C -303.84037 -3691.587 -303.30314 -3691.05 -302.64043 -3691.05 L -293.84087 -3691.05 C -293.17816 -3691.05 -292.64093 -3691.587 -292.64093 -3692.25 L -292.64093 -3693.85 C -292.64093 -3694.0707 -292.46185 -3694.25 -292.24095 -3694.25 C -292.02005 -3694.25 -291.84097 -3694.0707 -291.84097 -3693.85 L -291.84097 -3692.25 C -291.84097 -3691.1454 -292.73636 -3690.25 -293.84087 -3690.25 L -302.64043 -3690.25 C -303.74494 -3690.25 -304.64033 -3691.1454 -304.64033 -3692.25 L -304.64033 -3704.2493 C -304.64033 -3705.354 -303.74494 -3706.249 -302.64043 -3706.249 L -295.46317 -3706.249 C -295.35698 -3706.256 -295.24644 -3706.2205 -295.15796 -3706.132 L -291.95812 -3702.932 C -291.86964 -3702.8437 -291.83424 -3702.733 -291.84097 -3702.627 L -291.84097 -3701.0495 C -291.84097 -3700.8286 -292.02005 -3700.6495 -292.24095 -3700.6495 Z M -293.2066 -3697.4496 L -299.4517 -3697.4496 C -299.6726 -3697.4496 -299.85167 -3697.6287 -299.85167 -3697.8496 C -299.85167 -3698.0705 -299.6726 -3698.2496 -299.4517 -3698.2496 L -293.2066 -3698.2496 L -294.92366 -3699.9667 C -295.07986 -3700.123 -295.07986 -3700.376 -294.92366 -3700.5323 C -294.76746 -3700.6885 -294.5142 -3700.6885 -294.358 -3700.5323 L -291.95812 -3698.1324 C -291.80192 -3697.9762 -291.80192 -3697.723 -291.95812 -3697.567 L -294.358 -3695.167 C -294.5142 -3695.0107 -294.76746 -3695.0107 -294.92366 -3695.167 C -295.07986 -3695.323 -295.07986 -3695.5764 -294.92366 -3695.7326 Z M -295.0408 -3704.8836 L -295.0408 -3703.0494 L -293.2066 -3703.0494 Z" fill="#5c75a2"/>
      </g>
    </g>
  </g>
</svg>
